X:44
T: ????
R:Reel
M:2/2
L:1/8
K:D
d2cd BdAG | FDFA d2ef | gfed cABc | defd A2Bc |
d2cd BdAG | FDFA d2ef | gfed cABc |1 dfec d3A :|2 dfec d4 |
gfed cABc | dcde fdA2 | gfed cABc | defd A4 |
d2cd BdAG | FDFA d2ef | gfed cABc | dfec d4 :|

